svgs/sharp-duotone-light/wand.svg

<svg xmlns="http://www.w3.org/2000/svg" viewBox="0 0 512 512"><!--! Font Awesome Pro 7.1.0 by @fontawesome - https://fontawesome.com License - https://fontawesome.com/license (Commercial License) Copyright 2025 Fonticons, Inc. --><path opacity=".4" fill="currentColor" d="M46.5 409.3l56.2 56.2 263.8-294.8 9.5-10.7 40 0 0-44.7 8.2-9.1 43.8-49-13.2-13.2-263.6 235.8-9.1 8.2-54.1 0 0 48.4-10.7 9.5-70.8 63.3z"/><path fill="currentColor" d="M376 160l40 0 0-44.7 8.2-9.1 43.8-49-13.2-13.2-263.6 235.8-9.1 8.2-54.1 0 0 48.4-10.7 9.5-70.8 63.3 56.2 56.2 263.8-294.8 9.5-10.7zM125.4 488.1L104 512c-9.1-9.1-36.2-36.2-81.3-81.3L0 408c7.9-7.1 39.9-35.7 96-85.9l0-66.1 73.9 0 286.1-256 56 56-64 71.5 0 64.5-57.7 0-264.9 296.1z"/></svg>

<svg xmlns="http://www.w3.org/2000/svg" viewBox="0 0 512 512"><!--! Font Awesome Pro 6.7.2 by @fontawesome - https://fontawesome.com License - https://fontawesome.com/license (Commercial License) Copyright 2024 Fonticons, Inc. --><defs><style>.fa-secondary{opacity:.4}</style></defs><path class="fa-secondary" d="M46.5 409.3l56.2 56.2L366.5 170.7 376 160l14.3 0 25.7 0 0-32.5 0-12.2 8.2-9.1 43.8-49L454.8 44 191.2 279.8l-9.1 8.2-12.2 0L128 288l0 34.1 0 14.3L117.3 346 46.5 409.3z"/><path class="fa-primary" d="M376 160l14.3 0 25.7 0 0-32.5 0-12.2 8.2-9.1 43.8-49L454.8 44 191.2 279.8l-9.1 8.2-12.2 0L128 288l0 34.1 0 14.3L117.3 346 46.5 409.3l56.2 56.2L366.5 170.7 376 160zM125.4 488.1L104 512 81.3 489.3 22.7 430.7 0 408l23.9-21.4L96 322.1 96 288l0-32 32 0 41.9 0L456 0l56 56-64 71.5 0 32.5 0 32-32 0-25.7 0L125.4 488.1z"/></svg>
